X: 1
T:Merida's Dance 
C:David Kimdon
M:3/4
L:1/4
K:Dmaj clef=bass
"D"D,B,A,|"G"G,3|E,F,E,|"Bm"D,3|"Gmaj7"-D,3|"D"A,,3|D,,3|"G"G,,3|
"Em"G,,3|"A7"A,,3|"A"C,D,E,|"Bm"D,3|"G"D,3|"A"C,3|E,E,A,|"Bm"B,2B,|
"G"B,/2C/2B,/2A,/2G,|G,3|G,3/2G,/2 F,/2E,/2|"D"D,3|"A7"E,D,C,|"D"D,3|"A7"E,E,E,|"D"F,3|]
